X: 36363
T: Sean McGovern's
R: polka
M: 2/4
K: Dmajor
|:d>B|AD FA|GF EF/G/|AD FA|d2 c/d/c/B/|
AD FA|GF E>d|ce d/c/B/c/|d2:|
|:d>e|fd gf|e/f/e/d/ ce|fd gf|e2 a/b/a/g/|
fd gf|ec A>B|ce A/c/e|d2:|

